tools/download-figma-icons/icons/action/reset.svg

<svg width="24" height="24" viewBox="0 0 24 24" fill="none" xmlns="http://www.w3.org/2000/svg">
<path fill-rule="evenodd" clip-rule="evenodd" d="M15.0889 7.9245L16.3129 6.7005C15.1031 5.7 13.5844 5.16 11.9996 5.16C8.22713 5.16 5.16038 8.22675 5.16038 12C5.16038 15.7657 8.22713 18.84 11.9996 18.84C15.3409 18.84 18.2494 16.3485 18.7609 13.0515C18.8471 12.4613 19.4014 12.0578 19.9924 12.144C20.5826 12.2378 20.9854 12.792 20.8924 13.3755C20.2151 17.796 16.4711 21 11.9996 21C7.03913 21 2.99963 16.9613 2.99963 12C2.99963 7.03275 7.03913 3 11.9996 3C14.1529 3 16.2266 3.76275 17.8541 5.16L19.1569 3.8565C19.4666 3.5475 19.9271 3.45375 20.3306 3.6195C20.7334 3.792 20.9996 4.18125 20.9996 4.62V8.688C20.9996 9.285 20.5174 9.768 19.9196 9.768H15.8524C15.4129 9.768 15.0244 9.50175 14.8511 9.09825C14.6854 8.69475 14.7791 8.23425 15.0889 7.9245Z" fill="black"/>
</svg>

<svg xmlns="http://www.w3.org/2000/svg" width="24" height="24" fill="none" viewBox="0 0 24 24"><path fill="currentColor" fill-rule="evenodd" d="M15.089 7.925 16.313 6.7A6.75 6.75 0 0 0 12 5.16 6.845 6.845 0 0 0 5.16 12c0 3.766 3.067 6.84 6.84 6.84 3.34 0 6.25-2.491 6.76-5.788.087-.59.641-.994 1.232-.908.59.094.993.648.9 1.232C20.215 17.796 16.472 21 12 21c-4.96 0-9-4.039-9-9 0-4.967 4.04-9 9-9 2.153 0 4.227.763 5.854 2.16l1.303-1.303c.31-.31.77-.403 1.174-.238.402.173.669.562.669 1.001v4.068a1.08 1.08 0 0 1-1.08 1.08h-4.068a1.077 1.077 0 0 1-.763-1.844" clip-rule="evenodd"/></svg>
